broadcast-off.svg

<svg fill="currentColor" viewBox="0 0 24 24"><path d="M17.6 14.2c.3-.7.4-1.4.4-2.2 0-3.3-2.7-6-6-6-.8 0-1.6.2-2.2.4L11.4 8h.6c2.2 0 4 1.8 4 4 0 .2 0 .4-.1.6zM12 4c4.4 0 8 3.6 8 8 0 1.4-.4 2.6-1 3.7l1.5 1.5c.9-1.5 1.5-3.3 1.5-5.2 0-5.5-4.5-10-10-10-1.9 0-3.7.5-5.2 1.5L8.3 5c1.1-.7 2.3-1 3.7-1M3.3 2.5 2 3.8l2.1 2.1C2.8 7.6 2 9.7 2 12c0 3.7 2 6.9 5 8.6l1-1.7c-2.4-1.4-4-4-4-6.9 0-1.8.6-3.4 1.5-4.7L7 8.8c-.6.9-1 2-1 3.2 0 2.2 1.2 4.1 3 5.2l1-1.7c-1.2-.7-2-2-2-3.4 0-.6.2-1.2.4-1.8l1.6 1.6v.2c0 1.1.9 2 2 2h.2l7.5 7.5 1.3-1.3L4.3 3.5z"/></svg>

<svg  viewBox="0 0 24 24" fill="currentColor"><path  d="M17.6 14.2C17.9 13.5 18 12.8 18 12C18 8.7 15.3 6 12 6C11.2 6 10.4 6.2 9.8 6.4L11.4 8H12C14.2 8 16 9.8 16 12C16 12.2 16 12.4 15.9 12.6L17.6 14.2M12 4C16.4 4 20 7.6 20 12C20 13.4 19.6 14.6 19 15.7L20.5 17.2C21.4 15.7 22 13.9 22 12C22 6.5 17.5 2 12 2C10.1 2 8.3 2.5 6.8 3.5L8.3 5C9.4 4.3 10.6 4 12 4M3.3 2.5L2 3.8L4.1 5.9C2.8 7.6 2 9.7 2 12C2 15.7 4 18.9 7 20.6L8 18.9C5.6 17.5 4 14.9 4 12C4 10.2 4.6 8.6 5.5 7.3L7 8.8C6.4 9.7 6 10.8 6 12C6 14.2 7.2 16.1 9 17.2L10 15.5C8.8 14.8 8 13.5 8 12.1C8 11.5 8.2 10.9 8.4 10.3L10 11.9V12.1C10 13.2 10.9 14.1 12 14.1H12.2L19.7 21.6L21 20.3L4.3 3.5L3.3 2.5Z"/></svg>
